X:1
T:Pues ya las claras fuentes
T:Rodrigo de Ceballos
T:Pues ya las claras fuentes
T:Villanesca à 4 arreglada para coro
T:CPDL - Creative Commons Attribution Non Commercial 3.0
T:CPDL - Creative Commons Attribution Non Commercial 3.0
T:CPDL - Creative Commons Attribution Non Commercial 3.0
T:CPDL - Creative Commons Attribution Non Commercial 3.0
C:Rodrigo de Ceballos
Z:CPDL - Creative Commons Attribution Non Commercial 3.0
%%score [ 1 2 3 4 ]
L:1/8
Q:1/4=120
M:4/4
K:D
V:1 treble nm="S"
V:2 treble nm="A"
V:3 treble-8 nm="T"
V:4 bass nm="B"
V:1
"^Despacio" A4 B4 | z2 B2 A2 B2 | G4 F4 | z2 F2 G4 | z2 G2 A2 G2 | G4 F4 | z2 A4 d2- | d2 c2 d4 | %8
w: Pues ya|las cla- ras|fuen- tes,|pues ya|las cla- ras|fuen- tes,|pues ya|_ las cla-|
 e2 d4 cB | c6 c2- | c2 d2 B4 | (G2 A2) G4 | F4 z2 F2 | A2 A2 B4 | z2 B2 B2 B2 | A2 ^G2 A4 | %16
w: ras fuen- tes, *|los cau-|* da- lo-|sos _ ri-|os, al|tris- te son|de los sus-|pi- ros mi-|
 A2 d2 d2 B2 | d2 c2 B4 | A2 z2 z4 | z8 | z4 A4 | c2 c2 d3 c | (B2 A4 ^G2) | A4 z2 A2 | %24
w: os de- tie- nen|sus cor- rien-|tes.||Las|a- ves d'este e-|gi- * *|do ol-|
 A2 F2 =G2 F2 | E4 F2 z2 | z4 z2 A2 | A2 F2 G4 | E2 F2 E4 | z4 A4 | A2 A2 B4 | G2 B2 B2 B2 | %32
w: vi- dan el so-|ni- do,|ol-|vi- dan el|so- ni- do|de|mi com- pa-|ña y mal tam-|
 A2 A2 B4 | B8 | z2 d2 d3 c | B2 A2 F4 | G2 B2 B4 | A2 F2 G4 | F6 z2 | z4 z2 A2 | G2 F2 E2 E2 | %41
w: bién do- lien-|tes,|por- que cru-|el pas- to-|ra, por- que|cruel pas- to-|ra,|tu|con- di- ción ja-|
 D2 A2 A2 A2 | B4 B2 B2 | G2 F2 E4 | E6 z2 | z4 z2 A2 | G2 F2 E2 E2 | D2 A2 A2 A2 | B4 G2 B2 | %49
w: más no se me-|jo- ra, no|se me- jo-|ra,|tu|con- di- ción ja-|más no se me-|jo- ra, no|
 B3 B A4 | F4 F4 | F2 F2 G4 | !fermata!F8 |] %53
w: se me- jo-|ra, no|se me- jo-|ra.|
V:2
 D4 G4 | z2 G2 F2 G2 | E4 D4 | z2 D2 D4 | z2 D2 D2 D2 | (B,2 C2) D4 | z2 D4 A2- | A2 A2 F2 A2 | %8
w: ||||||pues ya|_ las cla- ras|
 (E2 F2) ^G4 | A6 A2- | A2 A2 (=G3 F) | (G2 D2) (D2 C2) | D4 z2 D2 | F2 F2 G4 | z2 G2 G2 DG | %15
w: fuen- * tes|||||||
 E2 B,2 E4 | F2 D2 F2 =G2 | F2 A2 (A2 ^G2) | A2 F2 A2 B2 | B2 A4 ^G2 | A6 E2 | E2 E2 F3 E | %22
w: |||tes. de- tie- nen|sus cor- rien-|tes. Las|a- ves d'este e-|
 (E4 D4) | E6 z2 | z8 | z2 A2 A2 F2 | G2 F2 E4 | F2 A2 B2 B2 | E2 A2 G4 | A4 E4 | E2 E2 G4 | %31
w: gi- *|do||ol- vi- dan|el so- ni-|do, ol- vi- dan|el so- ni-|do, *||
 G2 G2 G2 G2 | E2 F2 (G2 E2) | F8 | z2 B2 B2 A2 | G2 E4 ^D2 | E2 G2 G3 F | E2 D4 C2 | D6 A2 | %39
w: |||por- que cru-|el pas- to-|ra, por- que cru-|el pas- to-|ra, tu|
 G2 F2 E2 E2 | D2 z2 z2 A2 | G2 F2 E2 E2 | G6 G2 | B2 A4 ^G2 | A6 A2 | =G2 F2 E2 E2 | D2 z2 z2 A2 | %47
w: con- di- ción ja-|más, tu|con- di- ción ja-|más no|se me- jo-|ra, tu|con- di- ción ja-|más, tu|
 G2 F2 E2 E2 | G6 G2 | G2 BF E4 | D6 D2 | D2 D2 D4 | !fermata!D8 |] %53
w: con- di- ción ja-|más no|se me- * jo-|ra, no|se me- jo-|ra.|
V:3
 z8 | z8 | z8 | A4 B4 | z2 B2 A2 B2 | (B2 A2) A4 | d4 f4 | e4 d2 A2 | A4 d4 | e6 e2- | e2 f2 d4 | %11
w: |||Pues ya|las cla- ras|fuen- * tes|pues ya|las cla- ras|fuen- tes|los cau-|* da- lo-|
 (B2 A2) (B2 A2) | A4 z2 A2 | d2 d2 d4 | z2 e2 d2 d2 | c2 d2 (d2 c2) | d2 z4 z2 | z8 | %18
w: sos _ ri- *|os, al|tris- te son|de los sus-|pi- ros mi- *|os||
 z2 d2 f2 =g2 | g2 e2 d4 | e6 c2 | A2 A2 A3 A | (B2 c2 d4) | c4 z2 A2 | d2 d2 B2 d2 | %25
w: de- tie- nen|sus cor- rien-|tes. Las|a- ves d'este e-|gi- * *|do ol-|vi- dan el so-|
 (A2 c2) d2 z2 | z4 A4 | d2 d2 (G2 d2) | (c2 d2) B4 | c4 c4 | c2 c2 d4 | d2 e2 d2 d2 | c4 d2 e2- | %33
w: ni- * do,|ol-|vi- dan el _|so- * ni-|do de|mi com- pa-|ñía y mal tam-|bién do- lien-|
 e2 ^dc d4 | B4 d2 d2 | e2 A2 B4 | B2 e2 d2 d2 | c2 d2 G4 | A6 A2 | B2 d2 d2 c2 | d2 z2 z2 A2 | %41
w: * * * tes,|por- que cru-|el pas- to-|ra, por- que cru-|el pas- to-|ra, tu|con- di- ción ja-|más, tu|
 B2 d2 d2 c2 | d6 e2 | d2 d2 B4 | c6 A2 | B2 d2 d2 c2 | d2 z2 z2 A2 | B2 d2 d2 c2 | d6 e2 | %49
w: con- di- ción ja-|más no|se me- jo-|ra, tu|con- di- ción ja-|más, tu|con- di- ción ja-|más no|
 e2 d4 c2 | d2 A4 A2 | A2 A2 B4 | !fermata!A8 |] %53
w: se me- jo-|ra, no, no|se me- jo-|ra.|
V:4
 z8 | z8 | z8 | D,4 G,4 | z2 G,2 F,2 G,2 | E,4 D,4 | D,4 D,2 D,2 | A,6 D,2 | (C,2 D,2) B,,4 | %9
w: ||||||pues ya las|cla- ras|fuen- * tes|
 A,,6 A,2- | A,2 D,2 G,4 | (G,2 F,2) (E,2 A,2) | D,4 z2 D,2 | D,2 D,2 G,4 | z2 E,2 G,2 G,2 | %15
w: ||||||
 A,2 B,2 A,4 | D,2 z4 z2 | z8 | z2 D2 D2 B,2 | D2 C2 B,4 | A,6 A,,2 | A,,2 A,,2 D,3 A,, | %22
w: |||||||
 (E,2 C,2 B,,4) | A,,6 z2 | z8 | A,4 D2 D2 | B,2 D2 (A,2 C2) | D2 D,2 G,2 G,2 | A,2 D,2 E,4 | %29
w: |||ol- vi- dan|el so- ni- *|do, ol- vi- dan|el so- ni-|
 A,,4 A,4 | A,2 A,2 G,4 | G,2 E,2 G,2 G,2 | A,2 A,2 (G,3 A,) | B,8 | z8 | z8 | E,4 G,2 G,2 | %37
w: do, *|||bién do- lien- *|tes,|||por- que cru-|
 A,2 D,2 E,4 | D,6 z2 | z4 z2 A,2 | B,2 D2 D2 C2 | D2 D,2 A,2 A,2 | G,4 G,2 E,2 | G,2 D,2 E,4 | %44
w: el pas- to-|ra,|tu|con- di- ción ja-|más no se me-|jo- ra, no|se me- jo-|
 A,6 z2 | z4 z2 A,2 | B,2 D2 D2 C2 | D2 D,2 A,2 A,2 | G,4 G,2 E,2 | G,2 G,2 A,4 | D,6 D,2 | %51
w: ra,|tu|con- di- ción ja-|más no se me-|jo- ra, no|se me- jo-|ra, no|
 D,2 D,2 [G,,G,]4 | !fermata!D,8 |] %53
w: se me- jo-|ra.|

